resources/assets/features-icons/text-blasts.svg

<?xml version="1.0" encoding="UTF-8"?>
<svg width="62px" height="63px" viewBox="0 0 62 63" version="1.1" xmlns="http://www.w3.org/2000/svg" xmlns:xlink="http://www.w3.org/1999/xlink">
    <!-- Generator: Sketch 52.5 (67469) - http://www.bohemiancoding.com/sketch -->
    <title>Global/Icons/ipad</title>
    <desc>Created with Sketch.</desc>
    <defs>
        <linearGradient x1="0%" y1="100%" x2="95.2574922%" y2="0%" id="linearGradient-1">
            <stop stop-color="#F04C23" offset="0%"></stop>
            <stop stop-color="#F2B031" offset="100%"></stop>
        </linearGradient>
        <path d="M44.6875577,6.25 L29.2570395,6.25 L29.257039,6.25 C16.474012,6.28098828 6.13613058,16.799401 6.16673444,29.7435417 C6.1924926,40.6385417 13.6290616,50.0788542 24.113533,52.5260417 L24.113533,68.75 L42.1158042,53.125 L44.6875572,53.125 L44.687556,53.125 C57.4706088,53.1250006 67.8333333,42.6316667 67.8333333,29.6875 C67.8333339,16.7433333 57.4706088,6.25 44.687556,6.25 L44.6875577,6.25 Z M22.8276569,33.59375 L22.8276567,33.59375 C20.6971471,33.5937499 18.9700272,31.844862 18.9700272,29.6875 C18.9700273,27.530138 20.6971471,25.78125 22.8276567,25.78125 C24.9581664,25.7812501 26.6852863,27.530138 26.6852863,29.6875 L26.6852863,29.6874998 C26.6852863,31.8448618 24.9581664,33.5937498 22.8276567,33.5937498 L22.8276569,33.59375 Z M36.9722986,33.59375 L36.9722984,33.59375 C34.8417888,33.5937499 33.1146689,31.844862 33.1146689,29.6875 C33.1146689,27.530138 34.8417888,25.78125 36.9722984,25.78125 C39.1028081,25.7812501 40.829928,27.530138 40.829928,29.6875 L40.829928,29.6874998 C40.829928,31.8448618 39.1028081,33.5937498 36.9722984,33.5937498 L36.9722986,33.59375 Z M51.1169403,33.59375 L51.1169401,33.59375 C48.9864304,33.5937499 47.2593105,31.844862 47.2593105,29.6875 C47.2593106,27.530138 48.9864304,25.78125 51.1169401,25.78125 C53.2474497,25.7812501 54.9745696,27.530138 54.9745696,29.6875 L54.9745696,29.6874998 C54.9745696,31.8448618 53.2474497,33.5937498 51.1169401,33.5937498 L51.1169403,33.59375 Z" id="path-2"></path>
    </defs>
    <g id="Desktop" stroke="none" stroke-width="1" fill="none" fill-rule="evenodd">
        <g id="1-Home" transform="translate(-689.000000, -1132.000000)">
            <g id="Home/Sections" transform="translate(0.000000, 1020.000000)">
                <g id="Benefits">
                    <g id="Content" transform="translate(186.000000, 0.000000)">
                        <g id="Benefits" transform="translate(0.000000, 106.000000)">
                            <g id="Global/Icons/ipad-+-Easy-event-set-up-Mask" transform="translate(440.000000, 0.000000)">
                                <g id="Icon/Chat-Message" transform="translate(57.000000, 0.000000)">
                                    <rect id="24pt-Bounding-Box" x="0" y="0" width="74" height="75"></rect>
                                    <mask id="mask-3" fill="white">
                                        <use xlink:href="#path-2"></use>
                                    </mask>
                                    <use id="Fill" fill="url(#linearGradient-1)" fill-rule="evenodd" xlink:href="#path-2"></use>
                                </g>
                            </g>
                        </g>
                    </g>
                </g>
            </g>
        </g>
    </g>
</svg>

<svg xmlns="http://www.w3.org/2000/svg" width="62" height="63" xmlns:xlink="http://www.w3.org/1999/xlink"><title>Global/Icons/ipad</title><desc>Created with Sketch.</desc><defs><linearGradient id="b" x1="0%" x2="95.257%" y1="100%" y2="0%"><stop stop-color="#F04C23" offset="0%"/><stop stop-color="#F2B031" offset="100%"/></linearGradient><path id="a" d="M44.7 6.25H29.25c-12.8.03-23.12 10.55-23.1 23.5.03 10.9 7.47 20.33 17.95 22.78v16.22l18.02-15.63h2.57c12.77 0 23.13-10.5 23.13-23.43 0-12.96-10.36-23.45-23.14-23.45zM22.82 33.6c-2.13 0-3.86-1.76-3.86-3.9 0-2.17 1.73-3.92 3.86-3.92s3.86 1.75 3.86 3.9c0 2.16-1.74 3.9-3.87 3.9zm14.14 0c-2.13 0-3.86-1.76-3.86-3.9 0-2.17 1.74-3.92 3.87-3.92s3.86 1.75 3.86 3.9c0 2.16-1.73 3.9-3.86 3.9zm14.15 0c-2.13 0-3.86-1.76-3.86-3.9 0-2.17 1.73-3.92 3.86-3.92s3.85 1.75 3.85 3.9c0 2.16-1.72 3.9-3.85 3.9z"/></defs><g fill="none"><g><g><g id="Benefits"><g><g><g><g transform="translate(-6 -6)"><path d="M0 0h74v75H0z"/><mask><use xlink:href="#a"/></mask><use fill="url(#b)" xlink:href="#a"/></g></g></g></g></g></g></g></g></svg>
